svg/set/CC2/T.svg

<?xml version="1.0" encoding="UTF-8" standalone="no"?>
<svg
   width="90"
   height="90"
   viewBox="0 0 90 90"
   version="1.1"
   xml:space="preserve"
   style="clip-rule:evenodd;fill-rule:evenodd;stroke-linejoin:round;stroke-miterlimit:2"
   id="svg30"
   xmlns="http://www.w3.org/2000/svg"
   xmlns:svg="http://www.w3.org/2000/svg"
   xmlns:serif="http://www.serif.com/">
    <rect
   id="Mythic"
   x="0"
   y="0"
   width="90"
   height="90"
   style="fill:none" />
    <g
   id="Mythic1"
   serif:id="Mythic">
        <path
   d="m 12.898,35.346 0.311,-0.908 c 0.98,-2.861 2.227,-5.739 3.378,-8.564 l 0.511,-1.251 11.576,-0.019 c 0.233,-0.267 0.453,-0.505 0.66,-0.711 4.306,-4.306 11.005,-5.262 15.211,-5.274 v 0.005 l 0.046,0.001 c 0.708,0.016 1.418,0.014 2.126,0.052 1.447,0.077 1.961,0.155 3.238,0.311 l 0.027,0.004 c 3.526,0.527 6.858,2.013 9.704,4.129 0.643,0.478 1.295,1.007 1.822,1.622 l 1.743,-0.061 c 2.693,-0.095 5.388,-0.072 8.081,-0.08 l 1.233,-0.004 0.564,1.097 c 0,0 2.964,5.825 3.503,9.068 l 0.105,0.631 h 4.786 l 0.581,1.01 c 0,0 2.954,5.154 4.005,7.887 l 0.278,0.722 -0.277,0.723 c -0.996,2.595 -2.604,4.982 -3.843,7.463 l -0.556,1.114 h -1.246 c -1.124,0 -2.238,-0.001 -3.347,-0.002 l -0.431,1.11 c -1.134,2.926 -2.123,6.263 -3.549,9.058 l -0.561,1.099 H 57.761 c 0.004,0.97 -0.032,1.938 -0.133,2.905 l -0.058,0.554 -0.334,0.446 c -0.626,0.834 -1.516,1.347 -2.506,1.582 -1.163,0.276 -2.464,0.139 -3.355,-0.131 -0.93,-0.282 -2.534,-1.235 -7.368,-0.947 -0.827,0.049 -1.963,0.306 -2.874,0.475 -0.958,0.177 -1.89,0.644 -2.895,0.788 -0.912,0.131 -2.484,0.22 -3.678,-0.22 -1.257,-0.464 -2.212,-1.371 -2.444,-2.949 L 32.1,67.972 32.095,67.861 C 32.067,67.1 32.062,66.339 32.072,65.578 h -14.77 l -0.515,-1.244 c -1.213,-2.932 -3.624,-8.803 -3.624,-8.803 l -0.507,-1.234 c -1.098,0 -2.202,0.001 -3.317,0.001 H 8.059 L 7.515,53.139 C 6.36,50.678 4.768,48.326 3.869,45.755 L 3.629,45.067 3.884,44.385 C 4.916,41.626 6.483,39.051 7.828,36.443 L 8.39,35.354 Z m 0.495,2.014 c -0.11,-0.078 -0.177,-0.09 -0.177,-0.004 v 0.004 z"
   style="fill-rule:nonzero"
   id="path1" />
        <path
   d="m 15.027,54.766 17.09,0.029 c -0.002,1.084 -0.005,2.169 -0.034,3.251 -0.018,0.64 -0.06,1.278 -0.083,1.919 -0.047,1.199 -0.04,2.399 -0.047,3.599 H 18.649 c -1.213,-2.93 -2.616,-5.785 -3.62,-8.798 z m 0.203,-17.407 5.876,0.008 c -0.533,2.872 -0.823,5.632 -0.588,8.392 0.227,2.669 2.336,4.506 3.792,6.516 -5.065,0 -9.911,0.008 -14.971,0.008 C 8.213,49.884 6.647,47.597 5.772,45.09 6.775,42.406 8.309,39.905 9.619,37.367 L 15.23,37.356 Z M 26.6,26.622 c -1.817,2.747 -3.239,5.674 -4.752,8.468 h -6.733 c 0.967,-2.825 2.201,-5.666 3.338,-8.455 z"
   style="fill:url(#_Linear1);fill-rule:nonzero"
   id="path2" />
        <path
   d="m 74.973,54.766 -17.091,0.029 c 0.003,1.084 0.005,2.169 0.034,3.251 0.018,0.64 0.06,1.278 0.084,1.919 0.047,1.199 0.039,2.399 0.047,3.599 H 71.35 c 1.213,-2.93 2.617,-5.785 3.62,-8.798 z m -0.204,-17.407 -5.875,0.008 c 0.533,2.872 0.823,5.632 0.588,8.392 -0.228,2.669 -2.337,4.506 -3.793,6.516 5.065,0 9.911,0.008 14.971,0.008 1.127,-2.399 2.692,-4.686 3.568,-7.193 -1.004,-2.684 -2.538,-5.185 -3.847,-7.723 L 74.769,37.356 Z M 63.4,26.622 c 1.816,2.747 3.238,5.674 4.751,8.468 h 6.733 c -0.967,-2.825 -2.201,-5.666 -3.338,-8.455 z"
   style="fill:url(#_Linear2);fill-rule:nonzero"
   id="path3" />
        <path
   d="m 15.23,37.359 5.876,0.008 c -0.533,2.872 -0.823,5.632 -0.588,8.392 0.227,2.669 2.336,4.506 3.792,6.516 -5.065,0 -9.911,0.008 -14.971,0.008 C 8.213,49.884 6.647,47.597 5.772,45.09 6.775,42.406 8.309,39.905 9.619,37.367 l 5.611,-0.011 z"
   style="fill:url(#_Linear3);fill-rule:nonzero"
   id="path4" />
        <path
   d="m 74.769,37.359 -5.875,0.008 c 0.533,2.872 0.823,5.632 0.588,8.392 -0.228,2.669 -2.337,4.506 -3.793,6.516 5.065,0 9.911,0.008 14.971,0.008 1.127,-2.399 2.692,-4.686 3.568,-7.193 -1.004,-2.684 -2.538,-5.185 -3.847,-7.723 l -5.612,-0.011 z"
   style="fill:url(#_Linear4);fill-rule:nonzero"
   id="path5" />
        <path
   d="m 44.545,20.639 c 0.688,0.016 1.378,0.013 2.065,0.05 1.385,0.073 1.877,0.149 3.074,0.295 3.199,0.479 6.181,1.885 8.8,3.754 -1.344,2.2 -3.353,3.805 -5.4,5.297 2.679,-0.494 5.172,-1.651 7.386,-3.227 4.112,5.162 7.099,11.549 6.838,18.274 -0.042,2.076 -1.229,4.004 -2.875,5.209 -2.651,1.469 -5.884,1.367 -8.544,2.75 -0.102,0.269 -0.317,0.805 -0.419,1.079 -0.423,4.708 0.646,9.451 0.155,14.153 -0.842,1.122 -2.452,0.8 -3.665,1.093 -0.251,-2.541 0.026,-3.908 -0.316,-6.438 -0.256,-1.889 -1.814,-2.788 -2.06,-0.154 -0.149,1.605 -0.041,2.039 -0.078,3.644 -1.153,0.454 -2.308,0.883 -3.466,1.312 0.029,-2.107 0.319,-3.984 -0.018,-6.056 -0.274,-1.696 -1.665,-0.999 -1.788,-0.092 -0.308,2.259 -0.204,4.3 -0.347,6.574 -1.043,0.227 -2.084,0.455 -3.121,0.685 -0.633,-2.661 -0.131,-7.868 -1.532,-7.865 -2.532,0.008 -0.758,5.478 -1.283,8.28 -1.317,-0.097 -3.573,0.358 -3.842,-1.469 -0.154,-4.187 0.381,-8.364 0.413,-12.548 -0.06,-0.805 -0.005,-1.884 -0.769,-2.381 -2.977,-1.312 -6.73,-1.043 -9.213,-3.353 -2.642,-2.499 -2.148,-6.427 -1.563,-9.66 1.085,-5.471 3.921,-10.531 7.781,-14.527 0.512,2.01 0.81,4.153 1.934,5.943 1.893,1.14 4.242,0.912 6.367,1.043 -1.568,-0.912 -3.377,-1.521 -4.623,-2.883 -0.662,-2.01 -0.703,-4.158 -0.824,-6.252 3.382,-1.746 7.133,-2.524 10.933,-2.535 z m -0.828,25.254 c -2.363,3.282 -2.601,7.506 -2.214,11.4 2.232,-0.619 4.558,-0.65 6.795,-0.041 0.424,-3.824 0.246,-8.056 -2.185,-11.242 -0.269,2.972 -0.125,6.019 -1.05,8.897 -1.652,-2.702 -0.931,-6.019 -1.349,-9.014 z m 13.293,-8.95 c -0.536,-0.023 -1.054,0.087 -1.563,0.236 -3.424,1.037 -6.043,4.391 -6.242,7.958 -0.149,1.359 0.944,2.721 2.376,2.549 3.121,0.005 6.336,0.41 9.378,-0.424 2.101,-0.614 2.53,-3.27 1.85,-5.078 -0.852,-2.752 -2.822,-4.966 -5.799,-5.241 z m -24.305,0.05 c -0.914,0.089 -0.525,0.024 -1.176,0.154 -2.809,0.949 -4.67,3.902 -4.804,6.796 -0.102,1.641 1.033,3.269 2.708,3.497 2.953,0.543 6.001,0.298 8.986,0.227 1.926,0.097 2.512,-2.219 2.028,-3.716 -0.719,-3.069 -3.04,-6.067 -6.226,-6.801 -0.674,-0.154 -0.828,-0.128 -1.516,-0.154 z"
   style="fill:url(#_Linear5);fill-rule:nonzero"
   id="path6" />
    </g>
    <defs
   id="defs30">
        <linearGradient
   id="_Linear1"
   x1="0"
   y1="0"
   x2="1"
   y2="0"
   gradientUnits="userSpaceOnUse"
   gradientTransform="matrix(50.8729,0,0,50.8729,-17.7511,67.9403)"><stop
     offset="0"
     style="stop-color:rgb(97,44,117);stop-opacity:1"
     id="stop6" /><stop
     offset="0.3"
     style="stop-color:rgb(123,81,144);stop-opacity:1"
     id="stop7" /><stop
     offset="0.5"
     style="stop-color:rgb(191,153,195);stop-opacity:1"
     id="stop8" /><stop
     offset="0.7"
     style="stop-color:rgb(123,81,144);stop-opacity:1"
     id="stop9" /><stop
     offset="1"
     style="stop-color:rgb(97,44,117);stop-opacity:1"
     id="stop10" /></linearGradient>
        <linearGradient
   id="_Linear2"
   x1="0"
   y1="0"
   x2="1"
   y2="0"
   gradientUnits="userSpaceOnUse"
   gradientTransform="matrix(-50.8729,0,0,-50.8729,107.75,67.9403)"><stop
     offset="0"
     style="stop-color:rgb(97,44,117);stop-opacity:1"
     id="stop11" /><stop
     offset="0.3"
     style="stop-color:rgb(123,81,144);stop-opacity:1"
     id="stop12" /><stop
     offset="0.5"
     style="stop-color:rgb(191,153,195);stop-opacity:1"
     id="stop13" /><stop
     offset="0.7"
     style="stop-color:rgb(123,81,144);stop-opacity:1"
     id="stop14" /><stop
     offset="1"
     style="stop-color:rgb(97,44,117);stop-opacity:1"
     id="stop15" /></linearGradient>
        <linearGradient
   id="_Linear3"
   x1="0"
   y1="0"
   x2="1"
   y2="0"
   gradientUnits="userSpaceOnUse"
   gradientTransform="matrix(42.0613,0,0,42.0613,-17.7511,67.9403)"><stop
     offset="0"
     style="stop-color:rgb(97,44,117);stop-opacity:1"
     id="stop16" /><stop
     offset="0.3"
     style="stop-color:rgb(123,81,144);stop-opacity:1"
     id="stop17" /><stop
     offset="0.5"
     style="stop-color:rgb(191,153,195);stop-opacity:1"
     id="stop18" /><stop
     offset="0.7"
     style="stop-color:rgb(123,81,144);stop-opacity:1"
     id="stop19" /><stop
     offset="1"
     style="stop-color:rgb(97,44,117);stop-opacity:1"
     id="stop20" /></linearGradient>
        <linearGradient
   id="_Linear4"
   x1="0"
   y1="0"
   x2="1"
   y2="0"
   gradientUnits="userSpaceOnUse"
   gradientTransform="matrix(-42.0613,0.503693,-0.503693,-42.0613,107.75,67.9403)"><stop
     offset="0"
     style="stop-color:rgb(97,44,117);stop-opacity:1"
     id="stop21" /><stop
     offset="0.3"
     style="stop-color:rgb(123,81,144);stop-opacity:1"
     id="stop22" /><stop
     offset="0.5"
     style="stop-color:rgb(191,153,195);stop-opacity:1"
     id="stop23" /><stop
     offset="0.7"
     style="stop-color:rgb(123,81,144);stop-opacity:1"
     id="stop24" /><stop
     offset="1"
     style="stop-color:rgb(97,44,117);stop-opacity:1"
     id="stop25" /></linearGradient>
        <linearGradient
   id="_Linear5"
   x1="0"
   y1="0"
   x2="1"
   y2="0"
   gradientUnits="userSpaceOnUse"
   gradientTransform="matrix(59.9437,0,0,59.9437,15.0265,54.7659)"><stop
     offset="0"
     style="stop-color:rgb(97,44,117);stop-opacity:1"
     id="stop26" /><stop
     offset="0.3"
     style="stop-color:rgb(123,81,144);stop-opacity:1"
     id="stop27" /><stop
     offset="0.5"
     style="stop-color:rgb(191,153,195);stop-opacity:1"
     id="stop28" /><stop
     offset="0.7"
     style="stop-color:rgb(123,81,144);stop-opacity:1"
     id="stop29" /><stop
     offset="1"
     style="stop-color:rgb(97,44,117);stop-opacity:1"
     id="stop30" /></linearGradient>
    </defs>
</svg>

<?xml version="1.0" encoding="UTF-8" standalone="no"?>
<!DOCTYPE svg PUBLIC "-//W3C//DTD SVG 1.1//EN" "http://www.w3.org/Graphics/SVG/1.1/DTD/svg11.dtd">
<svg width="100%" height="100%" viewBox="0 0 90 90" version="1.1" xmlns="http://www.w3.org/2000/svg" xmlns:xlink="http://www.w3.org/1999/xlink" xml:space="preserve" xmlns:serif="http://www.serif.com/" style="fill-rule:evenodd;clip-rule:evenodd;stroke-linejoin:round;stroke-miterlimit:2;">
    <rect id="Mythic" x="0" y="0" width="90" height="90" style="fill:none;"/>
    <g id="Mythic1" serif:id="Mythic">
        <path d="M12.898,35.346L13.209,34.438C14.189,31.577 15.436,28.699 16.587,25.874L17.098,24.623L28.674,24.604C28.907,24.337 29.127,24.099 29.334,23.893C33.64,19.587 40.339,18.631 44.545,18.619L44.545,18.624L44.591,18.625C45.299,18.641 46.009,18.639 46.717,18.677C48.164,18.754 48.678,18.832 49.955,18.988L49.982,18.992C53.508,19.519 56.84,21.005 59.686,23.121C60.329,23.599 60.981,24.128 61.508,24.743L63.251,24.682C65.944,24.587 68.639,24.61 71.332,24.602L72.565,24.598L73.129,25.695C73.129,25.695 76.093,31.52 76.632,34.763L76.737,35.394L81.523,35.394L82.104,36.404C82.104,36.404 85.058,41.558 86.109,44.291L86.387,45.013L86.11,45.736C85.114,48.331 83.506,50.718 82.267,53.199L81.711,54.313L80.465,54.313C79.341,54.313 78.227,54.312 77.118,54.311L76.687,55.421C75.553,58.347 74.564,61.684 73.138,64.479L72.577,65.578L57.761,65.578C57.765,66.548 57.729,67.516 57.628,68.483L57.57,69.037L57.236,69.483C56.61,70.317 55.72,70.83 54.73,71.065C53.567,71.341 52.266,71.204 51.375,70.934C50.445,70.652 48.841,69.699 44.007,69.987C43.18,70.036 42.044,70.293 41.133,70.462C40.175,70.639 39.243,71.106 38.238,71.25C37.326,71.381 35.754,71.47 34.56,71.03C33.303,70.566 32.348,69.659 32.116,68.081L32.1,67.972L32.095,67.861C32.067,67.1 32.062,66.339 32.072,65.578L17.302,65.578L16.787,64.334C15.574,61.402 13.163,55.531 13.163,55.531L12.656,54.297C11.558,54.297 10.454,54.298 9.339,54.298L8.059,54.298L7.515,53.139C6.36,50.678 4.768,48.326 3.869,45.755L3.629,45.067L3.884,44.385C4.916,41.626 6.483,39.051 7.828,36.443L8.39,35.354L12.898,35.346ZM13.393,37.36C13.283,37.282 13.216,37.27 13.216,37.356L13.216,37.36L13.393,37.36Z" style="fill-rule:nonzero;"/>
        <path d="M15.027,54.766L32.117,54.795C32.115,55.879 32.112,56.964 32.083,58.046C32.065,58.686 32.023,59.324 32,59.965C31.953,61.164 31.96,62.364 31.953,63.564L18.649,63.564C17.436,60.634 16.033,57.779 15.029,54.766L15.027,54.766ZM15.23,37.359L21.106,37.367C20.573,40.239 20.283,42.999 20.518,45.759C20.745,48.428 22.854,50.265 24.31,52.275C19.245,52.275 14.399,52.283 9.339,52.283C8.213,49.884 6.647,47.597 5.772,45.09C6.775,42.406 8.309,39.905 9.619,37.367L15.23,37.356L15.23,37.359ZM26.6,26.622C24.783,29.369 23.361,32.296 21.848,35.09L15.115,35.09C16.082,32.265 17.316,29.424 18.453,26.635L26.6,26.622Z" style="fill:url(#_Linear1);fill-rule:nonzero;"/>
        <path d="M74.973,54.766L57.882,54.795C57.885,55.879 57.887,56.964 57.916,58.046C57.934,58.686 57.976,59.324 58,59.965C58.047,61.164 58.039,62.364 58.047,63.564L71.35,63.564C72.563,60.634 73.967,57.779 74.97,54.766L74.973,54.766ZM74.769,37.359L68.894,37.367C69.427,40.239 69.717,42.999 69.482,45.759C69.254,48.428 67.145,50.265 65.689,52.275C70.754,52.275 75.6,52.283 80.66,52.283C81.787,49.884 83.352,47.597 84.228,45.09C83.224,42.406 81.69,39.905 80.381,37.367L74.769,37.356L74.769,37.359ZM63.4,26.622C65.216,29.369 66.638,32.296 68.151,35.09L74.884,35.09C73.917,32.265 72.683,29.424 71.546,26.635L63.4,26.622Z" style="fill:url(#_Linear2);fill-rule:nonzero;"/>
        <path d="M15.23,37.359L21.106,37.367C20.573,40.239 20.283,42.999 20.518,45.759C20.745,48.428 22.854,50.265 24.31,52.275C19.245,52.275 14.399,52.283 9.339,52.283C8.213,49.884 6.647,47.597 5.772,45.09C6.775,42.406 8.309,39.905 9.619,37.367L15.23,37.356L15.23,37.359Z" style="fill:url(#_Linear3);fill-rule:nonzero;"/>
        <path d="M74.769,37.359L68.894,37.367C69.427,40.239 69.717,42.999 69.482,45.759C69.254,48.428 67.145,50.265 65.689,52.275C70.754,52.275 75.6,52.283 80.66,52.283C81.787,49.884 83.352,47.597 84.228,45.09C83.224,42.406 81.69,39.905 80.381,37.367L74.769,37.356L74.769,37.359Z" style="fill:url(#_Linear4);fill-rule:nonzero;"/>
        <path d="M44.545,20.639C45.233,20.655 45.923,20.652 46.61,20.689C47.995,20.762 48.487,20.838 49.684,20.984C52.883,21.463 55.865,22.869 58.484,24.738C57.14,26.938 55.131,28.543 53.084,30.035C55.763,29.541 58.256,28.384 60.47,26.808C64.582,31.97 67.569,38.357 67.308,45.082C67.266,47.158 66.079,49.086 64.433,50.291C61.782,51.76 58.549,51.658 55.889,53.041C55.787,53.31 55.572,53.846 55.47,54.12C55.047,58.828 56.116,63.571 55.625,68.273C54.783,69.395 53.173,69.073 51.96,69.366C51.709,66.825 51.986,65.458 51.644,62.928C51.388,61.039 49.83,60.14 49.584,62.774C49.435,64.379 49.543,64.813 49.506,66.418C48.353,66.872 47.198,67.301 46.04,67.73C46.069,65.623 46.359,63.746 46.022,61.674C45.748,59.978 44.357,60.675 44.234,61.582C43.926,63.841 44.03,65.882 43.887,68.156C42.844,68.383 41.803,68.611 40.766,68.841C40.133,66.18 40.635,60.973 39.234,60.976C36.702,60.984 38.476,66.454 37.951,69.256C36.634,69.159 34.378,69.614 34.109,67.787C33.955,63.6 34.49,59.423 34.522,55.239C34.462,54.434 34.517,53.355 33.753,52.858C30.776,51.546 27.023,51.815 24.54,49.505C21.898,47.006 22.392,43.078 22.977,39.845C24.062,34.374 26.898,29.314 30.758,25.318C31.27,27.328 31.568,29.471 32.692,31.261C34.585,32.401 36.934,32.173 39.059,32.304C37.491,31.392 35.682,30.783 34.436,29.421C33.774,27.411 33.733,25.263 33.612,23.169C36.994,21.423 40.745,20.645 44.545,20.634L44.545,20.639ZM43.717,45.893C41.354,49.175 41.116,53.399 41.503,57.293C43.735,56.674 46.061,56.643 48.298,57.252C48.722,53.428 48.544,49.196 46.113,46.01C45.844,48.982 45.988,52.029 45.063,54.907C43.411,52.205 44.132,48.888 43.714,45.893L43.717,45.893ZM57.01,36.943C56.474,36.92 55.956,37.03 55.447,37.179C52.023,38.216 49.404,41.57 49.205,45.137C49.056,46.496 50.149,47.858 51.581,47.686C54.702,47.691 57.917,48.096 60.959,47.262C63.06,46.648 63.489,43.992 62.809,42.184C61.957,39.432 59.987,37.218 57.01,36.943ZM32.705,36.993C31.791,37.082 32.18,37.017 31.529,37.147C28.72,38.096 26.859,41.049 26.725,43.943C26.623,45.584 27.758,47.212 29.433,47.44C32.386,47.983 35.434,47.738 38.419,47.667C40.345,47.764 40.931,45.448 40.447,43.951C39.728,40.882 37.407,37.884 34.221,37.15C33.547,36.996 33.393,37.022 32.705,36.996L32.705,36.993Z" style="fill:url(#_Linear5);fill-rule:nonzero;"/>
    </g>
    <defs>
        <linearGradient id="_Linear1" x1="0" y1="0" x2="1" y2="0" gradientUnits="userSpaceOnUse" gradientTransform="matrix(50.8729,0,0,50.8729,-17.7511,67.9403)"><stop offset="0" style="stop-color:rgb(97,44,117);stop-opacity:1"/><stop offset="0.3" style="stop-color:rgb(123,81,144);stop-opacity:1"/><stop offset="0.5" style="stop-color:rgb(191,153,195);stop-opacity:1"/><stop offset="0.7" style="stop-color:rgb(123,81,144);stop-opacity:1"/><stop offset="1" style="stop-color:rgb(97,44,117);stop-opacity:1"/></linearGradient>
        <linearGradient id="_Linear2" x1="0" y1="0" x2="1" y2="0" gradientUnits="userSpaceOnUse" gradientTransform="matrix(-50.8729,6.23013e-15,-6.23013e-15,-50.8729,107.75,67.9403)"><stop offset="0" style="stop-color:rgb(97,44,117);stop-opacity:1"/><stop offset="0.3" style="stop-color:rgb(123,81,144);stop-opacity:1"/><stop offset="0.5" style="stop-color:rgb(191,153,195);stop-opacity:1"/><stop offset="0.7" style="stop-color:rgb(123,81,144);stop-opacity:1"/><stop offset="1" style="stop-color:rgb(97,44,117);stop-opacity:1"/></linearGradient>
        <linearGradient id="_Linear3" x1="0" y1="0" x2="1" y2="0" gradientUnits="userSpaceOnUse" gradientTransform="matrix(42.0613,0,0,42.0613,-17.7511,67.9403)"><stop offset="0" style="stop-color:rgb(97,44,117);stop-opacity:1"/><stop offset="0.3" style="stop-color:rgb(123,81,144);stop-opacity:1"/><stop offset="0.5" style="stop-color:rgb(191,153,195);stop-opacity:1"/><stop offset="0.7" style="stop-color:rgb(123,81,144);stop-opacity:1"/><stop offset="1" style="stop-color:rgb(97,44,117);stop-opacity:1"/></linearGradient>
        <linearGradient id="_Linear4" x1="0" y1="0" x2="1" y2="0" gradientUnits="userSpaceOnUse" gradientTransform="matrix(-42.0613,0.503693,-0.503693,-42.0613,107.75,67.9403)"><stop offset="0" style="stop-color:rgb(97,44,117);stop-opacity:1"/><stop offset="0.3" style="stop-color:rgb(123,81,144);stop-opacity:1"/><stop offset="0.5" style="stop-color:rgb(191,153,195);stop-opacity:1"/><stop offset="0.7" style="stop-color:rgb(123,81,144);stop-opacity:1"/><stop offset="1" style="stop-color:rgb(97,44,117);stop-opacity:1"/></linearGradient>
        <linearGradient id="_Linear5" x1="0" y1="0" x2="1" y2="0" gradientUnits="userSpaceOnUse" gradientTransform="matrix(59.9437,0,0,59.9437,15.0265,54.7659)"><stop offset="0" style="stop-color:rgb(97,44,117);stop-opacity:1"/><stop offset="0.3" style="stop-color:rgb(123,81,144);stop-opacity:1"/><stop offset="0.5" style="stop-color:rgb(191,153,195);stop-opacity:1"/><stop offset="0.7" style="stop-color:rgb(123,81,144);stop-opacity:1"/><stop offset="1" style="stop-color:rgb(97,44,117);stop-opacity:1"/></linearGradient>
    </defs>
</svg>
